;FLAVOR:Marlin
;TIME:3630
;Filament used: 2.63718m
;Layer height: 0.2
;MINX:131.107
;MINY:92.2
;MINZ:0.3
;MAXX:168.875
;MAXY:207.8
;MAXZ:11.9
;Generated with Cura_SteamEngine 4.7.1
M140 S50
M105
M190 S50
M82 ;absolute extrusion mode
; start_gcode
M117 Start Clean        ; Indicate nozzle clean in progress on LCD
;
M104 S215.0 
M109 S215.0 
M109 R215.0 
;
M107                    ; Turn layer fan off
G21                     ; Set to metric [change to G20 if you want Imperial]
G90                     ; Force coordinates to be absolute relative to the origin
G28                     ; Home X/Y/Z axis
;
G1 X3 Y1 Z15 F9000      ; Move safe Z height to shear strings
G0 X1 Y1 Z0.2 F9000     ; Move in 1mm from edge and up [z] 0.2mm
G92 E0                  ; Set extruder to [0] zero
G1 X100 E12 F500        ; Extrude 30mm filiment along X axis 100mm long to prime and clean the nozzle
G92 E0                  ; Reset extruder to [0] zero end of cleaning run
G1 E-1 F500             ; Retract filiment by 1 mm to reduce string effect
G1 X180 F4000           ; quick wipe away from the filament line / purge
M117 End Clean          ; Indicate nozzle clean in progress on LCD
;
M117 Printing...
; Begin printing with sliced GCode after here
;
G92 E0
G92 E0
G1 F2400 E-6.8
;LAYER_COUNT:59
;LAYER:0
M107
M204 S500
M205 X8 Y8
G0 F3600 X132.504 Y95.663 Z0.3
;TYPE:SKIRT
G1 F2400 E0
G1 F1800 X132.987 Y95.039 E0.03937
G1 X133.392 Y94.602 E0.06909
G1 X133.509 Y94.485 E0.07735
G1 X134.095 Y93.955 E0.11677
G1 X134.731 Y93.488 E0.15613
G1 X135.411 Y93.087 E0.19552
G1 X136.129 Y92.757 E0.23494
G1 X136.876 Y92.502 E0.27432
G1 X137.645 Y92.323 E0.31371
G1 X138.429 Y92.223 E0.35314
G1 X139.024 Y92.2 E0.38285
G1 X141.79 Y92.2 E0.52085
G1 X142.579 Y92.24 E0.56026
G1 X143.359 Y92.359 E0.59962
G1 X144.124 Y92.557 E0.63905
G1 X144.864 Y92.831 E0.67842
G1 X145.573 Y93.179 E0.71782
G1 X146.244 Y93.597 E0.75726
G1 X146.868 Y94.08 E0.79663
G1 X147.305 Y94.485 E0.82635
G1 X147.422 Y94.602 E0.83461
G1 X147.952 Y95.188 E0.87403
G1 X148.419 Y95.824 E0.91339
G1 X148.82 Y96.504 E0.95278
G1 X149.15 Y97.222 E0.9922
G1 X149.405 Y97.969 E1.03158
G1 X149.584 Y98.738 E1.07097
G1 X149.684 Y99.522 E1.1104
G1 X149.707 Y100.117 E1.14011
G1 X149.707 Y122.017 E2.23271
G1 X160.607 Y122.018 E2.77651
G1 X161.396 Y122.058 E2.81592
G1 X162.177 Y122.178 E2.85534
G1 X162.941 Y122.375 E2.89471
G1 X163.672 Y122.637 E2.93345
G1 X164.396 Y122.953 E2.97286
G1 X165.085 Y123.339 E3.01226
G1 X165.731 Y123.794 E3.05168
G1 X166.327 Y124.311 E3.09104
G1 X166.869 Y124.886 E3.13047
G1 X167.473 Y125.698 E3.18096
G1 X167.631 Y125.942 E3.19546
G1 X168.026 Y126.626 E3.23487
G1 X168.35 Y127.346 E3.27426
G1 X168.6 Y128.096 E3.3137
G1 X168.772 Y128.866 E3.35306
G1 X168.866 Y129.65 E3.39245
G1 X168.875 Y130.553 E3.43751
G1 X168.861 Y130.847 E3.45219
G1 X168.784 Y131.633 E3.49159
G1 X168.627 Y132.407 E3.53099
G1 X168.393 Y133.161 E3.57038
G1 X168.084 Y133.888 E3.60979
G1 X167.703 Y134.58 E3.6492
G1 X167.335 Y135.122 E3.68189
G1 X167.137 Y135.389 E3.69847
G1 X166.635 Y135.999 E3.73788
G1 X165.951 Y136.663 E3.78544
G1 X163.155 Y139.062 E3.96925
G1 X163.155 Y157.218 E4.87505
G1 X163.249 Y157.261 E4.88021
G1 X163.929 Y157.662 E4.91959
G1 X164.565 Y158.13 E4.95899
G1 X165.151 Y158.66 E4.99841
G1 X165.68 Y159.246 E5.03779
G1 X166.147 Y159.883 E5.0772
G1 X166.595 Y160.658 E5.12186
G1 X166.768 Y161.001 E5.14103
G1 X167.088 Y161.724 E5.18047
G1 X167.423 Y162.842 E5.2387
G1 X167.432 Y162.883 E5.24079
G1 X167.562 Y163.662 E5.28019
G1 X167.613 Y164.555 E5.32482
G1 X167.613 Y168.208 E5.50707
G1 X167.601 Y168.633 E5.52828
G1 X167.452 Y171.365 E5.66478
G1 X167.37 Y172.15 E5.70416
G1 X167.208 Y172.923 E5.74356
G1 X167.064 Y173.407 E5.76876
G1 X167.048 Y173.455 E5.77128
G1 X166.76 Y174.19 E5.81066
G1 X166.4 Y174.893 E5.85007
G1 X166.135 Y175.32 E5.87514
G1 X165.733 Y175.922 E5.91125
G1 X165.261 Y176.555 E5.95065
G1 X164.761 Y177.105 E5.98773
G1 X164.737 Y177.129 E5.98942
G1 X164.151 Y177.659 E6.02884
G1 X163.558 Y178.097 E6.06562
G1 X162.948 Y178.505 E6.10224
G1 X162.271 Y178.911 E6.14162
G1 X161.582 Y179.234 E6.17959
G1 X161.548 Y179.248 E6.18142
G1 X160.803 Y179.512 E6.22085
G1 X160.102 Y179.686 E6.25689
G1 X159.374 Y179.831 E6.29392
G1 X158.648 Y179.94 E6.33055
G1 X157.831 Y179.983 E6.37136
G1 X149.707 Y179.983 E6.77667
G1 X149.707 Y199.883 E7.76949
G1 X149.667 Y200.672 E7.8089
G1 X149.548 Y201.452 E7.84826
G1 X149.35 Y202.217 E7.88769
G1 X149.076 Y202.957 E7.92706
G1 X148.728 Y203.666 E7.96646
G1 X148.31 Y204.337 E8.0059
G1 X147.827 Y204.961 E8.04527
G1 X147.422 Y205.398 E8.07499
G1 X147.305 Y205.515 E8.08325
G1 X146.719 Y206.045 E8.12267
G1 X146.083 Y206.512 E8.16203
G1 X145.403 Y206.913 E8.20142
G1 X144.685 Y207.243 E8.24084
G1 X143.938 Y207.498 E8.28022
G1 X143.169 Y207.677 E8.31961
G1 X142.385 Y207.777 E8.35904
G1 X141.79 Y207.8 E8.38875
G1 X139.024 Y207.8 E8.52675
G1 X138.235 Y207.76 E8.56616
G1 X137.455 Y207.641 E8.60553
G1 X136.69 Y207.443 E8.64495
G1 X135.95 Y207.169 E8.68432
G1 X135.241 Y206.821 E8.72372
G1 X134.57 Y206.403 E8.76316
G1 X133.946 Y205.92 E8.80253
G1 X133.509 Y205.515 E8.83225
G1 X133.392 Y205.398 E8.84051
G1 X132.862 Y204.812 E8.87993
G1 X132.395 Y204.176 E8.91929
G1 X131.994 Y203.496 E8.95868
G1 X131.664 Y202.778 E8.9981
G1 X131.409 Y202.031 E9.03748
G1 X131.23 Y201.262 E9.07687
G1 X131.13 Y200.478 E9.1163
G1 X131.107 Y199.883 E9.14601
G1 X131.107 Y100.117 E14.12336
G1 X131.147 Y99.328 E14.16277
G1 X131.266 Y98.548 E14.20214
G1 X131.464 Y97.783 E14.24156
G1 X131.738 Y97.043 E14.28093
G1 X132.086 Y96.334 E14.32033
G1 X132.504 Y95.663 E14.35977
G0 F3600 X132.901 Y95.794
G1 F1800 X133.382 Y95.194 E14.39814
G1 X133.791 Y94.767 E14.42764
G1 X134.363 Y94.253 E14.466
G1 X134.985 Y93.8 E14.50439
G1 X135.65 Y93.414 E14.54275
G1 X136.352 Y93.099 E14.58114
G1 X137.083 Y92.859 E14.61952
G1 X137.834 Y92.696 E14.65786
G1 X138.599 Y92.612 E14.69626
G1 X139.024 Y92.6 E14.71747
G1 X141.79 Y92.6 E14.85547
G1 X142.558 Y92.64 E14.89384
G1 X143.318 Y92.759 E14.93221
G1 X144.061 Y92.957 E14.97058
G1 X144.78 Y93.231 E15.00896
G1 X145.466 Y93.578 E15.04732
G1 X146.113 Y93.994 E15.08569
G1 X146.713 Y94.475 E15.12406
G1 X147.14 Y94.884 E15.15356
G1 X147.654 Y95.456 E15.19192
G1 X148.107 Y96.078 E15.23031
G1 X148.493 Y96.743 E15.26867
G1 X148.808 Y97.445 E15.30706
G1 X149.048 Y98.176 E15.34545
G1 X149.211 Y98.927 E15.38379
G1 X149.295 Y99.692 E15.42218
G1 X149.307 Y100.117 E15.44339
G1 X149.307 Y122.417 E16.55594
G1 X160.607 Y122.418 E17.1197
G1 X161.376 Y122.458 E17.15812
G1 X162.135 Y122.578 E17.19646
G1 X163.212 Y122.892 E17.25243
G1 X163.531 Y123.012 E17.26943
G1 X164.236 Y123.32 E17.30781
G1 X164.905 Y123.699 E17.34617
G1 X165.532 Y124.146 E17.38459
G1 X166.108 Y124.655 E17.42294
G1 X166.628 Y125.222 E17.46132
G1 X167.137 Y125.916 E17.50426
G1 X167.295 Y126.16 E17.51876
G1 X167.679 Y126.826 E17.55712
G1 X167.992 Y127.529 E17.59551
G1 X168.23 Y128.26 E17.63386
G1 X168.391 Y129.013 E17.67228
G1 X168.473 Y129.777 E17.71062
G1 X168.476 Y130.534 E17.74838
G1 X168.462 Y130.828 E17.76307
G1 X168.385 Y131.593 E17.80143
G1 X168.23 Y132.347 E17.83983
G1 X167.997 Y133.08 E17.8782
G1 X167.689 Y133.785 E17.91658
G1 X167.31 Y134.454 E17.95495
G1 X167.014 Y134.884 E17.98099
G1 X166.816 Y135.151 E17.99757
G1 X166.326 Y135.744 E18.03595
G1 X165.691 Y136.359 E18.08005
G1 X162.755 Y138.878 E18.27306
G1 X162.755 Y157.474 E19.20081
G1 X163.081 Y157.624 E19.21872
G1 X163.742 Y158.018 E19.25711
G1 X164.358 Y158.478 E19.29546
G1 X164.924 Y158.999 E19.33384
G1 X165.432 Y159.577 E19.37223
G1 X165.878 Y160.204 E19.41062
G1 X166.238 Y160.839 E19.44704
G1 X166.411 Y161.182 E19.46621
G1 X166.721 Y161.885 E19.50454
G1 X167.032 Y162.927 E19.55879
G1 X167.041 Y162.968 E19.56088
G1 X167.167 Y163.727 E19.59927
G1 X167.213 Y164.555 E19.64064
G1 X167.213 Y168.208 E19.82289
G1 X167.202 Y168.611 E19.843
G1 X167.053 Y171.343 E19.97951
G1 X166.971 Y172.108 E20.01789
G1 X166.811 Y172.86 E20.05625
G1 X166.668 Y173.328 E20.08066
G1 X166.387 Y174.044 E20.11904
G1 X166.034 Y174.727 E20.15739
G1 X165.802 Y175.097 E20.17918
G1 X165.4 Y175.699 E20.21529
G1 X164.94 Y176.316 E20.25369
G1 X164.479 Y176.823 E20.28788
G1 X164.455 Y176.847 E20.28957
G1 X163.883 Y177.361 E20.32794
G1 X163.336 Y177.765 E20.36186
G1 X162.726 Y178.173 E20.39848
G1 X162.065 Y178.567 E20.43687
G1 X161.43 Y178.865 E20.47186
G1 X161.396 Y178.879 E20.4737
G1 X160.67 Y179.134 E20.51209
G1 X160.024 Y179.293 E20.54528
G1 X159.296 Y179.438 E20.58231
G1 X158.606 Y179.542 E20.61712
G1 X157.831 Y179.583 E20.65584
G1 X149.307 Y179.583 E21.08111
G1 X149.307 Y199.883 E22.09388
G1 X149.267 Y200.651 E22.13225
G1 X149.148 Y201.411 E22.17063
G1 X148.95 Y202.154 E22.20899
G1 X148.676 Y202.873 E22.24737
G1 X148.329 Y203.559 E22.28573
G1 X147.913 Y204.206 E22.3241
G1 X147.432 Y204.806 E22.36247
G1 X147.023 Y205.233 E22.39197
G1 X146.451 Y205.747 E22.43033
G1 X145.829 Y206.2 E22.46872
G1 X145.164 Y206.586 E22.50709
G1 X144.462 Y206.901 E22.54547
G1 X143.731 Y207.141 E22.58386
G1 X142.98 Y207.304 E22.6222
G1 X142.215 Y207.388 E22.66059
G1 X141.79 Y207.4 E22.6818
G1 X139.024 Y207.4 E22.8198
G1 X138.256 Y207.36 E22.85817
G1 X137.496 Y207.241 E22.89655
G1 X136.753 Y207.043 E22.93491
G1 X136.034 Y206.769 E22.9733
G1 X135.348 Y206.422 E23.01165
G1 X134.701 Y206.006 E23.05003
G1 X134.101 Y205.525 E23.08839
G1 X133.674 Y205.116 E23.11789
G1 X133.16 Y204.544 E23.15626
G1 X132.707 Y203.922 E23.19465
G1 X132.321 Y203.257 E23.23301
G1 X132.006 Y202.555 E23.27139
G1 X131.766 Y201.824 E23.30978
G1 X131.603 Y201.073 E23.34812
G1 X131.519 Y200.308 E23.38651
G1 X131.507 Y199.883 E23.40773
G1 X131.507 Y100.117 E28.38507
G1 X131.547 Y99.349 E28.42344
G1 X131.666 Y98.589 E28.46182
G1 X131.864 Y97.846 E28.50018
G1 X132.138 Y97.127 E28.53857
G1 X132.485 Y96.441 E28.57692
G1 X132.901 Y95.794 E28.6153
G0 F3600 X133.299 Y95.928
G1 F1800 X133.957 Y95.167 E28.66549
G1 X134.074 Y95.05 E28.67374
G1 X134.631 Y94.55 E28.71109
G1 X135.237 Y94.113 E28.74836
G1 X135.887 Y93.742 E28.7857
G1 X136.573 Y93.443 E28.82303
G1 X137.287 Y93.219 E28.86037
G1 X138.02 Y93.072 E28.89767
G1 X139.024 Y93 E28.94788
G1 X141.79 Y93 E29.08588
G1 X142.537 Y93.04 E29.1232
G1 X143.275 Y93.159 E29.1605
G1 X143.997 Y93.357 E29.19785
G1 X144.693 Y93.63 E29.23515
G1 X145.356 Y93.977 E29.27248
G1 X145.979 Y94.392 E29.30983
G1 X146.74 Y95.05 E29.36002
G1 X146.857 Y95.167 E29.36827
G1 X147.357 Y95.724 E29.40561
G1 X147.794 Y96.33 E29.44289
G1 X148.165 Y96.98 E29.48023
G1 X148.464 Y97.666 E29.51756
G1 X148.688 Y98.38 E29.5549
G1 X148.835 Y99.113 E29.59219
G1 X148.907 Y100.117 E29.64241
G1 X148.907 Y122.817 E30.77492
G1 X160.607 Y122.818 E31.35863
G1 X161.354 Y122.858 E31.39596
G1 X162.093 Y122.978 E31.43331
G1 X163.072 Y123.266 E31.48422
G1 X163.391 Y123.386 E31.50122
G1 X164.076 Y123.687 E31.53855
G1 X164.725 Y124.058 E31.57585
G1 X165.331 Y124.497 E31.61318
G1 X165.886 Y124.999 E31.65052
G1 X166.385 Y125.556 E31.68783
G1 X166.802 Y126.133 E31.72334
G1 X166.96 Y126.377 E31.73785
G1 X167.332 Y127.026 E31.77517
G1 X167.633 Y127.711 E31.81249
G1 X167.86 Y128.424 E31.84983
G1 X168.009 Y129.157 E31.88714
G1 X168.078 Y129.902 E31.92447
G1 X168.076 Y130.515 E31.95505
G1 X168.062 Y130.809 E31.96974
G1 X167.987 Y131.553 E32.00704
G1 X167.832 Y132.285 E32.04437
G1 X167.6 Y132.996 E32.08169
G1 X167.294 Y133.679 E32.11902
G1 X166.917 Y134.325 E32.15634
G1 X166.495 Y134.913 E32.19245
G1 X166.018 Y135.489 E32.22976
G1 X165.43 Y136.056 E32.27051
G1 X162.355 Y138.694 E32.47264
G1 X162.355 Y157.729 E33.4223
G1 X162.913 Y157.988 E33.45299
G1 X163.554 Y158.373 E33.4903
G1 X164.15 Y158.825 E33.52762
G1 X164.695 Y159.338 E33.56496
G1 X165.182 Y159.906 E33.60229
G1 X165.605 Y160.523 E33.63961
G1 X165.881 Y161.019 E33.66793
G1 X166.054 Y161.362 E33.68709
G1 X166.355 Y162.047 E33.72442
G1 X166.641 Y163.013 E33.77468
G1 X166.65 Y163.054 E33.77678
G1 X166.771 Y163.792 E33.81409
G1 X166.813 Y164.555 E33.85221
G1 X166.813 Y168.208 E34.03446
G1 X166.803 Y168.589 E34.05347
G1 X166.654 Y171.321 E34.18998
G1 X166.573 Y172.065 E34.22731
G1 X166.305 Y173.154 E34.28327
G1 X166.289 Y173.202 E34.28579
G1 X166.015 Y173.898 E34.32311
G1 X165.469 Y174.875 E34.37895
G1 X165.067 Y175.477 E34.41506
G1 X164.619 Y176.076 E34.45238
G1 X164.196 Y176.54 E34.4837
G1 X164.172 Y176.564 E34.4854
G1 X163.615 Y177.064 E34.52274
G1 X163.114 Y177.432 E34.55375
G1 X162.504 Y177.84 E34.59037
G1 X161.861 Y178.223 E34.6277
G1 X161.277 Y178.495 E34.65985
G1 X161.243 Y178.509 E34.66168
G1 X160.537 Y178.756 E34.699
G1 X159.945 Y178.901 E34.7294
G1 X159.217 Y179.046 E34.76644
G1 X158.564 Y179.145 E34.79939
G1 X157.831 Y179.183 E34.83601
G1 X148.907 Y179.183 E35.28123
G1 X148.907 Y199.883 E36.31395
G1 X148.867 Y200.63 E36.35128
G1 X148.748 Y201.368 E36.38857
G1 X148.55 Y202.09 E36.42592
G1 X148.277 Y202.786 E36.46322
G1 X147.93 Y203.449 E36.50055
G1 X147.515 Y204.072 E36.5379
G1 X146.857 Y204.833 E36.58809
G1 X146.74 Y204.95 E36.59635
G1 X146.183 Y205.45 E36.63369
G1 X145.577 Y205.887 E36.67096
G1 X144.927 Y206.258 E36.7083
G1 X144.241 Y206.557 E36.74564
G1 X143.527 Y206.781 E36.78297
G1 X142.794 Y206.928 E36.82027
G1 X141.79 Y207 E36.87049
G1 X139.024 Y207 E37.00848
G1 X138.277 Y206.96 E37.0458
G1 X137.539 Y206.841 E37.0831
G1 X136.817 Y206.643 E37.12045
G1 X136.121 Y206.37 E37.15775
G1 X135.458 Y206.023 E37.19508
G1 X134.835 Y205.608 E37.23243
G1 X134.074 Y204.95 E37.28262
G1 X133.957 Y204.833 E37.29087
G1 X133.457 Y204.276 E37.32822
G1 X133.02 Y203.67 E37.36549
G1 X132.649 Y203.02 E37.40283
G1 X132.35 Y202.334 E37.44016
G1 X132.126 Y201.62 E37.4775
G1 X131.979 Y200.887 E37.51479
G1 X131.907 Y199.883 E37.56501
G1 X131.907 Y100.117 E42.54236
G1 X131.947 Y99.37 E42.57968
G1 X132.066 Y98.632 E42.61698
G1 X132.264 Y97.91 E42.65433
G1 X132.537 Y97.214 E42.69163
G1 X132.884 Y96.551 E42.72896
G1 X133.299 Y95.928 E42.76631
G0 F3600 X133.696 Y96.067
G1 F1800 X134.24 Y95.45 E42.80734
G1 X134.357 Y95.333 E42.8156
G1 X134.898 Y94.849 E42.85181
G1 X135.489 Y94.426 E42.88807
G1 X136.123 Y94.072 E42.9243
G1 X136.792 Y93.789 E42.96054
G1 X137.488 Y93.581 E42.99678
G1 X138.203 Y93.451 E43.03304
G1 X139.024 Y93.4 E43.07408
G1 X141.79 Y93.4 E43.21207
G1 X142.515 Y93.44 E43.2483
G1 X143.232 Y93.559 E43.28456
G1 X143.931 Y93.757 E43.3208
G1 X144.604 Y94.03 E43.35704
G1 X145.243 Y94.375 E43.39327
G1 X145.84 Y94.789 E43.42951
G1 X146.457 Y95.333 E43.47055
G1 X146.574 Y95.45 E43.47881
G1 X147.058 Y95.991 E43.51502
G1 X147.481 Y96.582 E43.55128
G1 X147.835 Y97.216 E43.58751
G1 X148.118 Y97.885 E43.62375
G1 X148.326 Y98.581 E43.65999
G1 X148.456 Y99.296 E43.69624
G1 X148.507 Y100.117 E43.73728
G1 X148.507 Y123.217 E44.88975
G1 X160.607 Y123.218 E45.49342
G1 X161.333 Y123.258 E45.52969
G1 X162.049 Y123.377 E45.56591
G1 X162.931 Y123.641 E45.61184
G1 X163.25 Y123.761 E45.62884
G1 X163.915 Y124.053 E45.66508
G1 X164.543 Y124.417 E45.70129
G1 X165.128 Y124.848 E45.73754
G1 X165.662 Y125.341 E45.7738
G1 X166.138 Y125.889 E45.81001
G1 X166.466 Y126.351 E45.83828
G1 X166.624 Y126.595 E45.85278
G1 X166.985 Y127.225 E45.88901
G1 X167.274 Y127.891 E45.92523
G1 X167.488 Y128.586 E45.96151
G1 X167.625 Y129.299 E45.99773
G1 X167.682 Y130.023 E46.03396
G1 X167.663 Y130.79 E46.07224
G1 X167.588 Y131.512 E46.10846
G1 X167.435 Y132.222 E46.14469
G1 X167.204 Y132.911 E46.18095
G1 X166.9 Y133.571 E46.2172
G1 X166.371 Y134.407 E46.26656
G1 X166.173 Y134.674 E46.28314
G1 X165.709 Y135.233 E46.31938
G1 X165.17 Y135.752 E46.35671
G1 X161.955 Y138.51 E46.56804
G1 X161.955 Y157.992 E47.54
G1 X162.085 Y158.044 E47.54699
G1 X162.744 Y158.351 E47.58326
G1 X163.364 Y158.728 E47.61946
G1 X163.94 Y159.172 E47.65574
G1 X164.463 Y159.675 E47.69195
G1 X164.928 Y160.234 E47.72822
G1 X165.328 Y160.84 E47.76445
G1 X165.697 Y161.542 E47.80401
G1 X165.988 Y162.207 E47.84023
G1 X166.251 Y163.099 E47.88663
G1 X166.26 Y163.14 E47.88872
G1 X166.376 Y163.857 E47.92496
G1 X166.413 Y164.555 E47.95983
G1 X166.413 Y168.208 E48.14208
G1 X166.403 Y168.567 E48.15999
G1 X166.254 Y171.299 E48.2965
G1 X166.175 Y172.021 E48.33273
G1 X165.925 Y173.027 E48.38445
G1 X165.909 Y173.075 E48.38697
