;FLAVOR:Marlin
;TIME:3483
;Filament used: 2.42352m
;Layer height: 0.2
;MINX:127.507
;MINY:88.6
;MINZ:0.3
;MAXX:172.48
;MAXY:211.4
;MAXZ:11.9
;Generated with Cura_SteamEngine 4.7.1
M140 S50
M105
M190 S50
M82 ;absolute extrusion mode
; start_gcode
M117 Start Clean        ; Indicate nozzle clean in progress on LCD
;
M104 S215.0 
M109 S215.0 
M109 R215.0 
;
M107                    ; Turn layer fan off
G21                     ; Set to metric [change to G20 if you want Imperial]
G90                     ; Force coordinates to be absolute relative to the origin
G28                     ; Home X/Y/Z axis
;
G1 X3 Y1 Z15 F9000      ; Move safe Z height to shear strings
G0 X1 Y1 Z0.2 F9000     ; Move in 1mm from edge and up [z] 0.2mm
G92 E0                  ; Set extruder to [0] zero
G1 X100 E12 F500        ; Extrude 30mm filiment along X axis 100mm long to prime and clean the nozzle
G92 E0                  ; Reset extruder to [0] zero end of cleaning run
G1 E-1 F500             ; Retract filiment by 1 mm to reduce string effect
G1 X180 F4000           ; quick wipe away from the filament line / purge
M117 End Clean          ; Indicate nozzle clean in progress on LCD
;
M117 Printing...
; Begin printing with sliced GCode after here
;
G92 E0
G92 E0
G1 F2400 E-6.8
;LAYER_COUNT:59
;LAYER:0
M107
M204 S500
M205 X8 Y8
G0 F3600 X129.507 Y93.572 Z0.3
;TYPE:SKIRT
G1 F2400 E0
G1 F1800 X130.079 Y92.808 E0.04762
G1 X130.712 Y92.093 E0.09526
G1 X131.403 Y91.435 E0.14286
G1 X132.147 Y90.836 E0.19051
G1 X132.939 Y90.302 E0.23817
G1 X133.772 Y89.836 E0.28579
G1 X134.641 Y89.441 E0.33341
G1 X135.54 Y89.12 E0.38104
G1 X136.463 Y88.876 E0.42867
G1 X137.404 Y88.71 E0.47634
G1 X138.596 Y88.613 E0.53601
G1 X139.237 Y88.6 E0.56799
G1 X141.363 Y88.601 E0.67406
G1 X142.064 Y88.611 E0.70903
G1 X143.017 Y88.665 E0.75666
G1 X143.962 Y88.798 E0.80427
G1 X144.893 Y89.01 E0.8519
G1 X145.803 Y89.299 E0.89954
G1 X146.686 Y89.663 E0.94719
G1 X147.535 Y90.099 E0.9948
G1 X148.345 Y90.606 E1.04248
G1 X149.109 Y91.178 E1.09009
G1 X149.823 Y91.812 E1.13773
G1 X150.481 Y92.504 E1.18537
G1 X151.079 Y93.248 E1.23299
G1 X151.613 Y94.04 E1.28065
G1 X152.078 Y94.873 E1.32824
G1 X152.411 Y95.609 E1.36855
G1 X152.415 Y95.607 E1.36877
G1 X152.711 Y96.314 E1.40701
G1 X153.757 Y98.713 E1.53758
G1 X154.813 Y100.962 E1.66153
G1 X155.951 Y103.216 E1.78751
G1 X157.138 Y105.413 E1.91209
G1 X158.384 Y107.568 E2.03628
G1 X159.711 Y109.72 E2.16241
G1 X161.088 Y111.822 E2.28778
G1 X162.509 Y113.859 E2.41169
G1 X164.009 Y115.886 E2.5375
G1 X165.535 Y117.832 E2.66088
G1 X167.168 Y119.796 E2.78831
G1 X168.523 Y121.335 E2.89061
G1 X168.579 Y121.405 E2.89508
G1 X169.389 Y122.31 E2.95567
G1 X169.794 Y122.788 E2.98693
G1 X169.854 Y122.863 E2.99172
G1 X170.176 Y123.286 E3.01824
G1 X170.298 Y123.454 E3.0286
G1 X170.827 Y124.25 E3.07628
G1 X171.286 Y125.087 E3.12391
G1 X171.674 Y125.959 E3.17153
G1 X171.988 Y126.861 E3.21918
G1 X172.225 Y127.785 E3.26677
G1 X172.384 Y128.727 E3.31443
G1 X172.452 Y129.442 E3.35026
G1 X172.457 Y129.522 E3.35426
G1 X172.478 Y130.126 E3.38441
G1 X172.48 Y130.339 E3.39504
G1 X172.449 Y131.293 E3.44266
G1 X172.277 Y132.591 E3.50798
G1 X172.086 Y133.588 E3.55863
G1 X171.882 Y134.585 E3.6094
G1 X171.446 Y137.059 E3.73473
G1 X171.088 Y139.489 E3.85727
G1 X170.786 Y142.03 E3.98493
G1 X170.566 Y144.481 E4.10771
G1 X170.412 Y147.008 E4.23401
G1 X170.329 Y149.51 E4.35891
G1 X170.317 Y152.012 E4.48373
G1 X170.376 Y154.509 E4.60834
G1 X170.507 Y157.02 E4.73379
G1 X170.707 Y159.523 E4.85906
G1 X171.008 Y162.259 E4.99638
G1 X171.115 Y163.115 E5.03942
G1 X171.194 Y164.074 E5.08743
G1 X171.205 Y164.464 E5.10689
G1 X171.213 Y165.169 E5.14207
G1 X171.212 Y167.673 E5.26699
G1 X171.201 Y168.417 E5.30412
G1 X171.193 Y168.705 E5.31849
G1 X171.159 Y169.521 E5.35924
G1 X171.083 Y170.906 E5.42844
G1 X171.026 Y171.747 E5.47049
G1 X170.92 Y172.696 E5.51813
G1 X170.736 Y173.633 E5.56577
G1 X170.473 Y174.551 E5.61341
G1 X170.135 Y175.443 E5.661
G1 X169.723 Y176.305 E5.70867
G1 X169.371 Y176.922 E5.74411
G1 X169.048 Y177.43 E5.77414
G1 X168.624 Y178.053 E5.81174
G1 X167.936 Y178.957 E5.86842
G1 X166.242 Y180.964 E5.99944
G1 X164.665 Y182.942 E6.12565
G1 X163.178 Y184.92 E6.24911
G1 X161.739 Y186.951 E6.37329
G1 X160.325 Y189.071 E6.50043
G1 X159.001 Y191.184 E6.62483
G1 X157.73 Y193.345 E6.74991
G1 X156.532 Y195.519 E6.87375
G1 X155.372 Y197.775 E7.00031
G1 X154.294 Y200.027 E7.12487
G1 X153.278 Y202.313 E7.24967
G1 X152.466 Y204.269 E7.35533
G1 X152.357 Y204.524 E7.36917
G1 X151.941 Y205.383 E7.41679
G1 X151.455 Y206.205 E7.46443
G1 X150.901 Y206.983 E7.51208
G1 X150.285 Y207.712 E7.55969
G1 X149.609 Y208.386 E7.60732
G1 X148.88 Y209.002 E7.65493
G1 X148.101 Y209.555 E7.7026
G1 X147.279 Y210.041 E7.75024
G1 X146.419 Y210.456 E7.79788
G1 X145.528 Y210.797 E7.84547
G1 X144.611 Y211.063 E7.89311
G1 X143.675 Y211.252 E7.94075
G1 X142.726 Y211.361 E7.9884
G1 X142.217 Y211.386 E8.01383
G1 X141.577 Y211.4 E8.04577
G1 X139.467 Y211.399 E8.15104
G1 X138.769 Y211.39 E8.18586
G1 X137.816 Y211.338 E8.23348
G1 X136.87 Y211.206 E8.28113
G1 X135.939 Y210.995 E8.32876
G1 X135.028 Y210.708 E8.37641
G1 X134.145 Y210.345 E8.42404
G1 X133.296 Y209.909 E8.47165
G1 X132.485 Y209.404 E8.51932
G1 X131.72 Y208.833 E8.56694
G1 X131.006 Y208.2 E8.61455
G1 X130.346 Y207.509 E8.66222
G1 X129.747 Y206.766 E8.70984
G1 X129.213 Y205.975 E8.75745
G1 X128.746 Y205.142 E8.80509
G1 X128.351 Y204.273 E8.85272
G1 X128.029 Y203.374 E8.90036
G1 X127.785 Y202.451 E8.94799
G1 X127.618 Y201.511 E8.99562
G1 X127.52 Y200.299 E9.05628
G1 X127.507 Y199.658 E9.08827
G1 X127.507 Y100.674 E14.0266
G1 X127.517 Y99.855 E14.06747
G1 X127.57 Y98.901 E14.11513
G1 X127.702 Y97.956 E14.16274
G1 X127.914 Y97.025 E14.21038
G1 X128.202 Y96.115 E14.25799
G1 X128.565 Y95.232 E14.30563
G1 X129.001 Y94.382 E14.35329
G1 X129.507 Y93.572 E14.40093
G0 F3600 X129.903 Y93.703
G1 F1800 X130.473 Y92.958 E14.44773
G1 X131.105 Y92.264 E14.49456
G1 X131.793 Y91.627 E14.54134
G1 X132.533 Y91.051 E14.58812
G1 X133.319 Y90.539 E14.63492
G1 X134.146 Y90.097 E14.68171
G1 X135.008 Y89.727 E14.72851
G1 X135.898 Y89.431 E14.7753
G1 X136.81 Y89.213 E14.82208
G1 X137.737 Y89.072 E14.86886
G1 X138.608 Y89.013 E14.91241
G1 X139.237 Y89 E14.9438
G1 X141.357 Y89.001 E15.04957
G1 X142.058 Y89.011 E15.08455
G1 X142.994 Y89.064 E15.13132
G1 X143.923 Y89.197 E15.17814
G1 X144.836 Y89.409 E15.2249
G1 X145.729 Y89.697 E15.27171
G1 X146.593 Y90.061 E15.31849
G1 X147.424 Y90.497 E15.36531
G1 X148.214 Y91.002 E15.41208
G1 X148.958 Y91.572 E15.45884
G1 X149.651 Y92.204 E15.50564
G1 X150.288 Y92.893 E15.55245
G1 X150.864 Y93.633 E15.59923
G1 X151.375 Y94.42 E15.64605
G1 X151.816 Y95.247 E15.69281
G1 X152.038 Y95.764 E15.72088
G1 X152.046 Y95.761 E15.7213
G1 X152.347 Y96.479 E15.76015
G1 X153.392 Y98.877 E15.89065
G1 X154.452 Y101.133 E16.01501
G1 X155.597 Y103.403 E16.14185
G1 X156.782 Y105.597 E16.26625
G1 X158.055 Y107.799 E16.39315
G1 X159.352 Y109.902 E16.51642
G1 X160.759 Y112.047 E16.6444
G1 X162.187 Y114.096 E16.769
G1 X163.689 Y116.126 E16.89498
G1 X165.245 Y118.11 E17.02078
G1 X166.844 Y120.032 E17.14551
G1 X168.223 Y121.599 E17.24965
G1 X168.284 Y121.675 E17.25451
G1 X169.091 Y122.577 E17.3149
G1 X169.482 Y123.038 E17.34505
G1 X169.542 Y123.113 E17.34985
G1 X169.853 Y123.521 E17.37544
G1 X169.975 Y123.689 E17.3858
G1 X170.493 Y124.471 E17.4326
G1 X170.943 Y125.294 E17.47939
G1 X171.321 Y126.152 E17.52617
G1 X171.624 Y127.04 E17.57298
G1 X171.851 Y127.95 E17.61977
G1 X172 Y128.876 E17.66656
G1 X172.053 Y129.467 E17.69617
G1 X172.058 Y129.547 E17.70016
G1 X172.079 Y130.13 E17.72927
G1 X172.081 Y130.343 E17.7399
G1 X172.049 Y131.28 E17.78667
G1 X171.885 Y132.515 E17.84883
G1 X171.694 Y133.507 E17.89923
G1 X171.489 Y134.506 E17.95011
G1 X171.056 Y136.962 E18.07453
G1 X170.683 Y139.494 E18.20221
G1 X170.393 Y141.945 E18.32534
G1 X170.164 Y144.489 E18.45278
G1 X170.012 Y146.971 E18.57684
G1 X169.929 Y149.495 E18.70283
G1 X169.917 Y152.019 E18.82875
G1 X169.977 Y154.54 E18.95456
G1 X170.106 Y157.037 E19.0793
G1 X170.309 Y159.566 E19.20588
G1 X170.607 Y162.278 E19.342
G1 X170.718 Y163.164 E19.38655
G1 X170.794 Y164.09 E19.4329
G1 X170.805 Y164.468 E19.45177
G1 X170.813 Y165.169 E19.48674
G1 X170.812 Y167.667 E19.61137
G1 X170.801 Y168.411 E19.64849
G1 X170.793 Y168.689 E19.66237
G1 X170.767 Y169.337 E19.69472
G1 X170.674 Y171.038 E19.77971
G1 X170.627 Y171.719 E19.81377
G1 X170.522 Y172.651 E19.86056
G1 X170.339 Y173.571 E19.90736
G1 X170.078 Y174.472 E19.95416
G1 X169.741 Y175.347 E20.00094
G1 X169.331 Y176.191 E20.04775
G1 X169.03 Y176.713 E20.07781
G1 X168.713 Y177.211 E20.10726
G1 X168.294 Y177.827 E20.14443
G1 X167.63 Y178.699 E20.19911
G1 X165.925 Y180.72 E20.33103
G1 X164.378 Y182.658 E20.45474
G1 X162.848 Y184.694 E20.5818
G1 X161.396 Y186.744 E20.70713
G1 X159.997 Y188.842 E20.83294
G1 X158.65 Y190.99 E20.95943
G1 X157.393 Y193.128 E21.08317
G1 X156.177 Y195.335 E21.20888
G1 X155.021 Y197.584 E21.33504
G1 X153.932 Y199.857 E21.46078
G1 X152.894 Y202.193 E21.58831
G1 X152.029 Y204.275 E21.70079
G1 X151.99 Y204.365 E21.70569
G1 X151.581 Y205.209 E21.75248
G1 X151.101 Y206.014 E21.79924
G1 X150.555 Y206.777 E21.84605
G1 X149.945 Y207.489 E21.89282
G1 X149.277 Y208.148 E21.93964
G1 X148.556 Y208.747 E21.9864
G1 X147.785 Y209.282 E22.03322
G1 X146.973 Y209.75 E22.07998
G1 X146.123 Y210.147 E22.12678
G1 X145.242 Y210.47 E22.1736
G1 X144.338 Y210.717 E22.22035
G1 X143.415 Y210.886 E22.26716
G1 X142.206 Y210.987 E22.32769
G1 X141.577 Y211 E22.35908
G1 X139.472 Y210.999 E22.4641
G1 X138.774 Y210.99 E22.49892
G1 X137.838 Y210.938 E22.54569
G1 X136.909 Y210.806 E22.59251
G1 X135.995 Y210.596 E22.63929
G1 X135.102 Y210.309 E22.68609
G1 X134.237 Y209.946 E22.73289
G1 X133.406 Y209.512 E22.77966
G1 X132.615 Y209.008 E22.82646
G1 X131.87 Y208.438 E22.87326
G1 X131.176 Y207.807 E22.92005
G1 X130.539 Y207.12 E22.96679
G1 X129.962 Y206.38 E23.01361
G1 X129.45 Y205.594 E23.06041
G1 X129.007 Y204.767 E23.10721
G1 X128.636 Y203.906 E23.15399
G1 X128.34 Y203.016 E23.20078
G1 X128.121 Y202.104 E23.24757
G1 X127.98 Y201.177 E23.29435
G1 X127.92 Y200.288 E23.33881
G1 X127.907 Y199.658 E23.37024
G1 X127.907 Y100.674 E28.30858
G1 X127.917 Y99.86 E28.34919
G1 X127.97 Y98.924 E28.39596
G1 X128.102 Y97.995 E28.44278
G1 X128.313 Y97.081 E28.48957
G1 X128.601 Y96.189 E28.53634
G1 X128.964 Y95.324 E28.58314
G1 X129.399 Y94.493 E28.62994
G1 X129.903 Y93.703 E28.67669
G0 F3600 X130.299 Y93.835
G1 F1800 X130.868 Y93.111 E28.72263
G1 X131.496 Y92.439 E28.76851
G1 X132.181 Y91.823 E28.81448
G1 X132.917 Y91.27 E28.8604
G1 X133.698 Y90.782 E28.90635
G1 X134.518 Y90.364 E28.95227
G1 X135.372 Y90.019 E28.99822
G1 X136.252 Y89.749 E29.04414
G1 X137.152 Y89.557 E29.09005
G1 X138.066 Y89.443 E29.13601
G1 X138.619 Y89.413 E29.16364
G1 X139.237 Y89.4 E29.19448
G1 X141.2 Y89.4 E29.29241
G1 X142.052 Y89.411 E29.33492
G1 X142.971 Y89.464 E29.38085
G1 X143.882 Y89.597 E29.42678
G1 X144.778 Y89.808 E29.4727
G1 X145.653 Y90.096 E29.51866
G1 X146.499 Y90.459 E29.56459
G1 X147.31 Y90.894 E29.6105
G1 X148.081 Y91.398 E29.65646
G1 X148.805 Y91.967 E29.7024
G1 X149.477 Y92.596 E29.74832
G1 X150.092 Y93.281 E29.79425
G1 X150.645 Y94.017 E29.84018
G1 X151.132 Y94.799 E29.88614
G1 X151.549 Y95.619 E29.93203
G1 X151.677 Y95.916 E29.94817
G1 X151.982 Y96.645 E29.98759
G1 X153.021 Y99.028 E30.11729
G1 X154.097 Y101.319 E30.24357
G1 X155.24 Y103.584 E30.37014
G1 X156.427 Y105.781 E30.49472
G1 X157.712 Y108.003 E30.62278
G1 X159.037 Y110.152 E30.74874
G1 X160.412 Y112.25 E30.87388
G1 X161.87 Y114.341 E31.00106
G1 X163.368 Y116.365 E31.12669
G1 X164.922 Y118.346 E31.2523
G1 X166.538 Y120.289 E31.37838
G1 X167.923 Y121.863 E31.48298
G1 X167.989 Y121.945 E31.48823
G1 X168.793 Y122.844 E31.5484
G1 X169.169 Y123.288 E31.57743
G1 X169.529 Y123.756 E31.60689
G1 X169.651 Y123.924 E31.61725
G1 X170.159 Y124.692 E31.66319
G1 X170.599 Y125.501 E31.70913
G1 X170.966 Y126.345 E31.75505
G1 X171.26 Y127.218 E31.801
G1 X171.476 Y128.113 E31.84694
G1 X171.614 Y129.023 E31.89286
G1 X171.658 Y129.572 E31.92033
G1 X171.679 Y130.133 E31.94834
G1 X171.681 Y130.346 E31.95897
G1 X171.649 Y131.267 E32.00495
G1 X171.492 Y132.44 E32.06399
G1 X171.302 Y133.427 E32.11414
G1 X171.097 Y134.428 E32.16511
G1 X170.66 Y136.906 E32.29065
G1 X170.289 Y139.426 E32.41773
G1 X169.996 Y141.898 E32.54192
G1 X169.765 Y144.464 E32.67045
G1 X169.612 Y146.967 E32.79556
G1 X169.529 Y149.48 E32.921
G1 X169.517 Y152.027 E33.04808
G1 X169.576 Y154.535 E33.17324
G1 X169.709 Y157.089 E33.30083
G1 X169.908 Y159.575 E33.42525
G1 X170.216 Y162.371 E33.56559
G1 X170.321 Y163.214 E33.60797
G1 X170.395 Y164.106 E33.65263
G1 X170.405 Y164.473 E33.67094
G1 X170.413 Y165.169 E33.70567
G1 X170.412 Y167.661 E33.82999
G1 X170.401 Y168.405 E33.86712
G1 X170.393 Y168.673 E33.88049
G1 X170.36 Y169.477 E33.92064
G1 X170.275 Y171.011 E33.99729
G1 X170.228 Y171.692 E34.03134
G1 X170.125 Y172.607 E34.07728
G1 X169.942 Y173.509 E34.1232
G1 X169.683 Y174.392 E34.16911
G1 X169.347 Y175.25 E34.21508
G1 X168.938 Y176.075 E34.26102
G1 X168.643 Y176.579 E34.29015
G1 X168.236 Y177.206 E34.32745
G1 X167.965 Y177.601 E34.35135
G1 X167.325 Y178.441 E34.40403
G1 X165.605 Y180.479 E34.53708
G1 X164.061 Y182.415 E34.66062
G1 X162.522 Y184.462 E34.78839
G1 X161.065 Y186.52 E34.91419
G1 X159.658 Y188.629 E35.04068
G1 X158.325 Y190.755 E35.16587
G1 X157.042 Y192.938 E35.2922
G1 X155.814 Y195.166 E35.41912
G1 X154.662 Y197.407 E35.54483
G1 X153.563 Y199.7 E35.67169
G1 X152.545 Y201.992 E35.79681
G1 X151.727 Y203.963 E35.90327
G1 X151.623 Y204.206 E35.91646
G1 X151.221 Y205.034 E35.96238
G1 X150.748 Y205.824 E36.00832
G1 X150.208 Y206.57 E36.05426
G1 X149.606 Y207.266 E36.10017
G1 X148.946 Y207.908 E36.14611
G1 X148.232 Y208.489 E36.19203
G1 X147.471 Y209.007 E36.23796
G1 X146.668 Y209.457 E36.28389
G1 X145.828 Y209.835 E36.32984
G1 X144.959 Y210.139 E36.37577
G1 X144.067 Y210.366 E36.42169
G1 X143.159 Y210.516 E36.46761
G1 X142.195 Y210.587 E36.51583
G1 X141.577 Y210.6 E36.54667
G1 X139.477 Y210.599 E36.65144
G1 X138.779 Y210.59 E36.68627
G1 X137.86 Y210.538 E36.73219
G1 X136.949 Y210.407 E36.77811
G1 X136.053 Y210.197 E36.82402
G1 X135.178 Y209.91 E36.86996
G1 X134.331 Y209.548 E36.91592
G1 X133.519 Y209.114 E36.96185
G1 X132.748 Y208.612 E37.00775
G1 X132.023 Y208.044 E37.0537
G1 X131.35 Y207.415 E37.09966
G1 X130.735 Y206.731 E37.14555
G1 X130.181 Y205.996 E37.19147
G1 X129.693 Y205.215 E37.23741
G1 X129.274 Y204.395 E37.28335
G1 X128.928 Y203.542 E37.32928
G1 X128.658 Y202.662 E37.3752
G1 X128.465 Y201.761 E37.42117
G1 X128.351 Y200.848 E37.46707
G1 X128.32 Y200.277 E37.4956
G1 X128.307 Y199.658 E37.52649
G1 X128.307 Y100.674 E42.46482
G1 X128.317 Y99.866 E42.50514
G1 X128.369 Y98.946 E42.55111
G1 X128.501 Y98.035 E42.59704
G1 X128.712 Y97.139 E42.64296
G1 X128.999 Y96.264 E42.6889
G1 X129.362 Y95.418 E42.73483
G1 X129.796 Y94.606 E42.78076
G1 X130.299 Y93.835 E42.82669
G0 F3600 X130.695 Y93.971
G1 F1800 X131.262 Y93.267 E42.87179
G1 X131.888 Y92.617 E42.91681
G1 X132.569 Y92.024 E42.96186
G1 X133.301 Y91.494 E43.00695
G1 X134.076 Y91.031 E43.05199
G1 X134.889 Y90.638 E43.09704
G1 X135.734 Y90.318 E43.14212
G1 X136.603 Y90.075 E43.18714
G1 X137.491 Y89.909 E43.23221
G1 X138.63 Y89.813 E43.28923
G1 X139.237 Y89.8 E43.31952
G1 X141.2 Y89.8 E43.41746
G1 X142.046 Y89.811 E43.45967
G1 X142.948 Y89.864 E43.50475
G1 X143.841 Y89.996 E43.54978
G1 X144.72 Y90.207 E43.59488
G1 X145.576 Y90.495 E43.63994
G1 X146.403 Y90.857 E43.68498
G1 X147.195 Y91.291 E43.73004
G1 X147.945 Y91.794 E43.77509
G1 X148.648 Y92.361 E43.82015
G1 X149.298 Y92.987 E43.86517
G1 X149.891 Y93.669 E43.91026
G1 X150.42 Y94.401 E43.95532
G1 X150.883 Y95.176 E44.00036
G1 X151.275 Y95.99 E44.04543
G1 X151.586 Y96.735 E44.08571
G1 X152.664 Y99.208 E44.2203
G1 X153.736 Y101.49 E44.34608
G1 X154.889 Y103.776 E44.47382
G1 X156.086 Y105.992 E44.59947
G1 X157.367 Y108.207 E44.72713
G1 X158.694 Y110.359 E44.85327
G1 X160.077 Y112.468 E44.97909
G1 X161.537 Y114.562 E45.10645
G1 X163.052 Y116.609 E45.2335
G1 X164.629 Y118.62 E45.361
